Icons/Line/si_Settings_cute.svg

<svg width="24" height="24" fill="none" xmlns="http://www.w3.org/2000/svg"><g clip-path="url(#a)" stroke="#000" stroke-width="1.5"><path d="M23 12c0-1.66-1.34-3-3-3h-.76l.54-.54a3 3 0 0 0 0-4.24 3 3 0 0 0-4.24 0l-.54.54V4c0-1.66-1.34-3-3-3S9 2.34 9 4v.76l-.54-.54a3 3 0 0 0-4.24 0 3 3 0 0 0 0 4.24l.54.54H4c-1.66 0-3 1.34-3 3s1.34 3 3 3h.76l-.54.54a3 3 0 0 0 0 4.24 3 3 0 0 0 4.24 0l.54-.54V20c0 1.66 1.34 3 3 3s3-1.34 3-3v-.76l.54.54a3 3 0 0 0 4.24 0 3 3 0 0 0 0-4.24l-.54-.54H20c1.66 0 3-1.34 3-3Z" stroke-linejoin="round"/><path d="M12 16a4 4 0 1 0 0-8 4 4 0 0 0 0 8Z" stroke-miterlimit="10"/></g><defs><clipPath id="a"><path fill="#fff" d="M0 0h24v24H0z"/></clipPath></defs></svg>

<svg width="24" height="24" viewBox="0 0 24 24" fill="none" xmlns="http://www.w3.org/2000/svg">
<g clip-path="url(#clip0_22_112)">
<path d="M23 12C23 10.34 21.66 9 20 9H19.24L19.78 8.46C20.95 7.29 20.95 5.39 19.78 4.22C18.61 3.05 16.71 3.05 15.54 4.22L15 4.76V4C15 2.34 13.66 1 12 1C10.34 1 9 2.34 9 4V4.76L8.46 4.22C7.29 3.05 5.39 3.05 4.22 4.22C3.05 5.39 3.05 7.29 4.22 8.46L4.76 9H4C2.34 9 1 10.34 1 12C1 13.66 2.34 15 4 15H4.76L4.22 15.54C3.05 16.71 3.05 18.61 4.22 19.78C5.39 20.95 7.29 20.95 8.46 19.78L9 19.24V20C9 21.66 10.34 23 12 23C13.66 23 15 21.66 15 20V19.24L15.54 19.78C16.71 20.95 18.61 20.95 19.78 19.78C20.95 18.61 20.95 16.71 19.78 15.54L19.24 15H20C21.66 15 23 13.66 23 12V12Z" stroke="black" stroke-width="1.5" stroke-linejoin="round"/>
<path d="M12 16C14.2091 16 16 14.2091 16 12C16 9.79086 14.2091 8 12 8C9.79086 8 8 9.79086 8 12C8 14.2091 9.79086 16 12 16Z" stroke="black" stroke-width="1.5" stroke-miterlimit="10"/>
</g>
<defs>
<clipPath id="clip0_22_112">
<rect width="24" height="24" fill="white"/>
</clipPath>
</defs>
</svg>
